X:1
T:L'harmonieux vigneron
T:L'harmonieux vigneron
T:Georg Friedrich HAENDEL                                                                                     Arrangement: Jean-Paul Finck
C:Georg Friedrich HAENDEL
Z:Arrgt: Jean-Paul FINCK
%%score [ 1 2 3 4 ]
L:1/8
M:4/4
K:E
V:1 treble nm="Soprano" snm="S."
V:2 treble nm="Alto" snm="A."
V:3 treble-8 nm="Tenor" snm="T."
V:4 bass nm="Bass" snm="B."
V:1
!mf! E2 G2 F2 B2 | G2 (FE) F2 B2 | G2 (cE) D2 BD | (D2 ^A2) !breath!B4 ::!f! B2 eB c2 B2 | %5
w: 1.Quand je bois du|vin clai- * ret, a-|mis, la- * tê- te me|tour- * ne.|1.Cô- tes du Rhô- ne,|
w: 2.Bu- vons bien là,|bu- vons _ donc à|la san- * té de nos|pè- * res.|2.Qu'on se ré- jouis- se,|
!p! GBeB c2 B2 |!f! (GB)(ed) (dc)(cB) | (BA) (G/A/)B F4 |!mf! B2 E2 F2 E2 |!p! ((BG))(FE) (FD) E2 | %10
w: An- * jou, Bour- go- gne,|rouge _ ou _ blanc _ ro _|sé _ cré- * * mant!|Que la treil- le,|ô _ mer- * veil- * le,|
w: qu'on _ s'é- bau- bis- se,|que _ l'on _ goûte _ à _|ces _ fla- * * cons!|||
!f! B2 EF (DA)GF | G2 (FE) E4!D.C.! :| %12
w: vienne au se- cours _ des _|com- pa _ gnons!|
w: ||
V:2
!mf! B,2 E2 F2 D2 | E2 (B,E) F2 D2 | E3 E D2 DB, | C4 !breath!D4 ::!f! E2 GG E2 E2 | %5
w: 1.Quand je bois du|vin clai- * ret, a-|mis, la tê- te me|tour- ne.|1.Cô- tes du Rhô- ne,|
w: 2.Bu- vons bien là,|bu- vons _ donc à|la san- té de nos|pè- res.|2.Qu'on se ré- jouis- se,|
!p! z2 GG E2 E2 |!f! G2 B2 E2 E2 | D2 E2 D4 |!mf! E2 B,2 C2 B,2 |!p! z2 B,2 C2 B,2 | %10
w: ou Bour- go- gne,|rouge ou blanc ro-|sé cré- mant!|Que la treil- le,|mer- veil- le,|
w: s'é- bau- bis- se,|que l'on goûte à|ces fla- cons!|||
!f! z2 EB, D2 E2 | E2 D2 E4 :| %12
w: au se- cours des|com- pa- gnons!|
w: ||
V:3
!mf! G2 B2 B2 B2 | B2 (BG) B2 B2 | B2 (Gc) B2 BB | (G2 F2) !breath!F4 ::!f! G2 BB A2 B2 | %5
w: 1.Quand je bois du|vin clai- * ret, a-|mis, la- * tê- te me|tour- * ne.|1.Cô- tes du Rhô- ne,|
w: 2.Bu- vons bien là,|bu- vons _ donc à|la san- * té de nos|pè- * res.|2.Qu'on se ré- jouis- se,|
!p! z2 BB A2 B2 |!f! B2 B2 A2 B2 | B2 B2 B4 |!mf! B2 G2 A2 G2 |!p! z2 G2 A2 G2 |!f! z2 BG (AB) B2 | %11
w: ou Bour- go- gne,|rouge ou blanc ro-|sé cré- mant!|Que la treil- le,|mer- veil- le,|au se- cours _ des|
w: s'é- bau- bis- se,|que l'on goûte à|ces fla- cons!||||
 B2 A2 G4 :| %12
w: com- pa- gnons!|
w: |
V:4
!mf! E,2 E,2 D,2 B,,2 | E,2 E,2 D,2 B,,2 | E,3 E, F,2 F,G, | (E,2 F,2) !breath!B,,4 :: %4
w: 1.Quand je bois du|vin clai- ret, a-|mis, la tê- te me|tour- * ne.|
w: 2.Bu- vons bien là,|bu- vons donc à|la san- té de nos|pè- * res.|
!f! G,2 E,E, A,2 G,2 |!p! z2 E,E, A,2 G,2 |!f! E,2 G,2 A,2 G,2 | F,2 E,2 (B,,2 A,,2) | %8
w: 1.Cô- tes du Rhô- ne,|ou Bour- go- gne,|rouge ou blanc ro-|sé cré- mant! *|
w: 2.Qu'on se ré- jouis- se,|s'é- bau- bis- se,|que l'on goûte à|ces fla- cons! *|
!mf! G,,2 G,2 A,2 G,2 |!p! z2 G,2 A,2 G,2 |!f! z2 G,G, F,2 E,2 | B,,2 B,,2 C,4 :| %12
w: Que la treil- le,|mer- veil- le,|au se- cours des|com- pa- gnons!|
w: ||||

